X:1
T:Title
%%score { ( 1 4 5 ) | ( 2 3 ) }
L:1/8
Q:1/4=100
M:4/4
K:Ab
V:1 treble nm="Grand Piano"
V:4 treble 
V:5 treble 
V:2 bass 
V:3 bass 
V:1
 [CA]2 [E,E]2 [CA]2 E2 | F>[EG] [EA]>B c2 [_Ge]2 | [Fd]2 [FA]2 [Ec]2 [EA]2 | %3
w: Chas.~H.~Gabriel * * *|||
 [=DB]>[DF] [DG]>[DA] [_DB]4 | [CA]2 [E,E]2 [CA]2 E2 | F>[EG] [EA]>B c2 e2 | %6
w: |||
 [A=d]2 [Ac]2 [GB]2 [FA]2 | [EG]>[GB] [FA]>[=DF] E4 | B>=A B>c d2 [EG]2 | [EA]2 B2 c2 e2 | %10
w: ||||
 d>e d>c B2 e2 | c6 z2 | [=Ec]2 [EG]2 A>G F2 | [FB]2 F2 G>F E2 | A2 [GB]2 [Ac]2 [A=d]2 | [Ge]8 | %16
w: ||||||
 .[Gd]2 .[_Gd]2 .[Fd]2 .[Ed]2 | c>d c>_c =c4 | .[=Ec]2 .[Ec]2 .[Fc]2 .[GB]2 | A>B A>G z2 _G2 | %20
w: ||||
 [DFA]2 .[A,EA]2 [DFA]2 .[A,EA]2 | [Ed]2 .[Ec]2 [Ed]2 .[Ec]2 | [_Ge]2 [Fd]2 [Fc]2 [FB]2 | %23
w: |||
 A>G A>B c4 | e2 [Fd]2 [Fc]2 [FB]2 | [EA]2 [DG]2 [CA]4 | [Ec]6 z2 | A,2 z2 A,2 A>c | e6 z2 | %29
w: ||||||
 c6 z2 | [Fd]6 z2 | [Ec]6 z2 | B6 c2 | e6 z2 | [Ec]6 z2 | A,2 z2 A,2 A>c | e6 z2 | c6 z2 | %38
w: |||||||||
 [Fd]6 z2 | [Ec]6 z2 | z2 E2 z z/ e/ d>B | A8 |] %42
w: ||||
V:2
 [A,,E,]2 z2 [A,,E,]2 [C,A,]2 | [D,A,D]>[B,,B,] [C,A,]>[E,G,E] [A,E]2 [C,A,]2 | %2
 [D,A,]2 [D,A,]2 [A,,A,]2 [C,A,]2 | [B,,A,]>[B,,B,] [B,,B,]>[B,,F,] [E,G,]4 | %4
 [A,,E,]2 z2 [A,,E,]2 [C,A,]2 | [D,A,D]>[B,,B,] [C,A,]>[E,G,E] [A,E]2 [A,,CA]2 | %6
 [B,,B,]2 [B,,B,]2 [B,,B,]2 [B,,B,]2 | [B,,B,]>[B,,B,] [B,,B,]>[B,,A,] [E,G,]4 | %8
 [E,DE]>[E,CE] [E,DE]>[E,CE] [E,B,E]2 [D,B,]2 | [C,A,]2 [E,G,E]2 [A,E]2 [A,CE]2 | %10
 [E,B,E]>[E,CE] [E,B,E]>[E,A,E] [E,G,E]2 [E,G,E]2 | [A,E]6 z2 | %12
 [C,G,]2 [C,C]2 [F,CF]>[G,C=E] [A,C]2 | [D,B,]2 [D,B,]2 [E,B,E]>[F,B,=D] [G,B,]2 | %14
 [F,CF]2 [E,E]2 [A,E]2 [F,B,]2 | [E,B,]8 | B,2- [=E,B,-]2 [F,B,-]2 [G,B,]2 | %17
 [A,E]>[A,F] [A,E]>[A,=D] [A,E]4 | G,6 z2 | [F,CF]>[F,CF] [F,CF]>[F,CF] C2- [E,C]2 | %20
 D,2 .C,2 D,2 .C,2 | [B,,G,]2 .[A,,A,]2 [B,,G,]2 .[A,,A,]2 | [=A,,C]2 [B,,B,]2 [C,=A,]2 [D,B,]2 | %23
 [E,CE]>[E,B,E] [E,CE]>[E,G,E] [A,E]4 | [=A,,C_G]2 [B,,B,]2 [C,=A,]2 [D,B,]2 | %25
 [E,C]2 [E,B,]2 [A,,A,]4 | [A,,A,]2 E,2 A,,2 (3z ED | z4 z2 [E,A,]2 | %28
 [G,B,E]2 [E,B,]2 [G,B,]2 [E,B,E]2 | [A,E]2 [E,A,]2 [C,A,]2 [A,,A,]2 | %30
 [D,A,]2 D,2 D,2 (3D[K:treble]F=E | [A,,A,]2 A,,2 A,,2 [A,,A,]2 | %32
 [B,,A,]2 [B,,A,]2 [B,,A,]2 [B,,B,]2 | [E,B,]2 [D,B,]2 [C,A,]2 [B,,G,]2 | %34
 [A,,A,]2 E,2 A,,2 (3z ED | z4 z2 [E,A,]2 | [G,B,E]2 [E,B,]2 [G,B,]2 [E,B,E]2 | %37
 [A,E]2 [E,A,]2 [C,A,]2 [A,,A,]2 | [D,A,]2 D,2 D,2 (3D[K:treble]F=E | [A,,A,]2 A,,2 A,,2 [A,,A,]2 | %40
 [E,G,E]2 [E,G,]2 [E,G,]2 [E,DE]2 | A,,2 A,,2 A,,4 |] %42
V:3
 x8 | x8 | x8 | x8 | x8 | x8 | x8 | x8 | x8 | x8 | x8 | x8 | x8 | x8 | x8 | x8 | E,2 z2 z4 | x8 | %18
 C,2 C,2 =D,2 [=E,C]2 | z4 [F,F]2 z2 | x8 | x8 | x8 | x8 | x8 | x8 | z4 z2 E,2 | %27
 A,,2 E,2 A,,2 C>E | x8 | x8 | z4 z2 [D,A,]2[K:treble] | x8 | x8 | x8 | z4 z2 E,2 | %35
 A,,2 E,2 A,,2 C>E | x8 | x8 | z4 z2 [D,A,]2[K:treble] | x8 | x8 | x8 |] %42
V:4
 x8 | x8 | x8 | x8 | x8 | x8 | x8 | x8 | x8 | x8 | x8 | x8 | x8 | x8 | x8 | x8 | x8 | x8 | x8 | %19
 z4 A4 | x8 | x8 | x8 | x8 | x8 | x8 | z4 A,2 (3[DB]cB | [CE]6 z2 | z2 E2 z z/ B/ c>d | %29
 z2 E2 E2 [_Gc]2 | z2 A,2 A,2 (3FAB | z2 A,2 A,2 [Ec]2 | =D2 D2 z z/ B/ A->[A=d] | G2 G2 A2 [Ed]2 | %34
 z4 A,2 (3[DB]cB | [CE]6 z2 | z2 E2 z z/ B/ c>d | z2 E2 E2 [_Gc]2 | z2 A,2 A,2 (3FAB | %39
 z2 A,2 A,2 [Ec]2 | B6 z2 | [CE]2 [B,D]2 [A,C]4 |] %42
V:5
 x8 | x8 | x8 | x8 | x8 | x8 | x8 | x8 | x8 | x8 | x8 | x8 | x8 | x8 | x8 | x8 | x8 | x8 | x8 | %19
 x8 | x8 | x8 | x8 | x8 | x8 | x8 | x8 | x8 | z4 E2 z2 | x8 | x8 | x8 | z4 =D2 z2 | x8 | x8 | x8 | %36
 z4 E2 z2 | x8 | x8 | x8 | z4 E2 z2 | x8 |] %42

